mobile/apps/auth/assets/custom-icons/icons/battlenet.svg

<svg width="500" height="500" viewBox="0 0 500 500" fill="none" xmlns="http://www.w3.org/2000/svg">
<g clip-path="url(#clip0_181_130)">
<path d="M394.583 172.833C331.25 143.583 240.292 125 154.708 131.917C159 103.583 169.583 83.8334 186.958 79.6667C210.875 73.9376 236.958 89.6667 261.833 118.292C278.125 120.417 297.458 124.125 310.896 127.229C265.562 41.9375 204.75 -5.87495 158.479 11.7709C123.312 25.1876 105.292 73.6459 107.479 138.729C61.6457 148.479 25.9166 165.813 3.04156 190.708C1.8749 192.063 -0.729272 195.438 0.187395 197.063C0.895728 198.271 3.22906 196.896 4.22906 196.229C30.7707 177.688 64.7291 167.625 108.958 161.313C115.271 230.75 144.646 318.813 193.437 389.479C166.771 399.938 144.354 400.646 132.062 387.667C115.146 369.833 115.729 339.375 128.104 303.5C121.802 288.106 116.192 272.437 111.292 256.542C60.0624 338.5 49.0832 415.083 87.4791 446.333C116.687 470.083 167.625 461.438 222.937 427.042C254.292 461.875 287.167 484.125 320.167 491.5C321.917 491.813 326.146 492.396 327.083 490.792C327.792 489.542 325.417 488.208 324.354 487.688C295.021 474 269.354 449.604 241.771 414.458C298.75 374.271 360.333 304.813 397.125 227.208C419.542 245.125 431.292 264.146 426.25 281.271C419.25 304.833 392.604 319.604 355.354 326.792C345.157 339.931 334.397 352.624 323.104 364.833C419.646 368.167 491.437 339.417 499.312 290.563C505.271 253.354 472.333 213.563 414.875 182.854C429.375 138.292 432.208 98.6876 422.083 66.4376C421.479 64.7709 419.875 60.8126 418 60.8126C416.583 60.8126 416.604 63.5209 416.687 64.7084C419.5 96.9376 411.208 131.375 394.562 172.833H394.583ZM216.812 378.438C175.979 312.917 152.437 235.75 152.604 157.729C229.729 155.146 308.312 173.313 375.812 212.458C339.5 280.563 284.458 339.542 216.792 378.417L216.812 378.438Z" fill="#148EFF"/>
</g>
<defs>
<clipPath id="clip0_181_130">
<rect width="500" height="500" fill="white"/>
</clipPath>
</defs>
</svg>

<svg xmlns="http://www.w3.org/2000/svg" fill="none" viewBox="0 0 500 500"><g clip-path="url(#a)"><path fill="#148EFF" d="M394.583 172.833C331.25 143.583 240.292 125 154.708 131.917c4.292-28.334 14.875-48.084 32.25-52.25 23.917-5.73 50 10 74.875 38.625 16.292 2.125 35.625 5.833 49.063 8.937C265.562 41.938 204.75-5.875 158.479 11.771c-35.167 13.417-53.187 61.875-51 126.958-45.833 9.75-81.562 27.084-104.437 51.979-1.167 1.355-3.771 4.73-2.855 6.355.709 1.208 3.042-.167 4.042-.834 26.542-18.541 60.5-28.604 104.729-34.916 6.313 69.437 35.688 157.5 84.479 228.166-26.666 10.459-49.083 11.167-61.375-1.812-16.916-17.834-16.333-48.292-3.958-84.167a557.25 557.25 0 0 1-16.812-46.958C60.062 338.5 49.083 415.083 87.479 446.333c29.208 23.75 80.146 15.105 135.458-19.291 31.355 34.833 64.23 57.083 97.23 64.458 1.75.313 5.979.896 6.916-.708.709-1.25-1.666-2.584-2.729-3.104-29.333-13.688-55-38.084-82.583-73.23 56.979-40.187 118.562-109.645 155.354-187.25 22.417 17.917 34.167 36.938 29.125 54.063-7 23.562-33.646 38.333-70.896 45.521a577.048 577.048 0 0 1-32.25 38.041c96.542 3.334 168.333-25.416 176.208-74.27 5.959-37.209-26.979-77-84.437-107.709 14.5-44.562 17.333-84.166 7.208-116.416-.604-1.667-2.208-5.625-4.083-5.625-1.417 0-1.396 2.708-1.313 3.895 2.813 32.23-5.479 66.667-22.125 108.125h.021ZM216.812 378.438c-40.833-65.521-64.375-142.688-64.208-220.709 77.125-2.583 155.708 15.584 223.208 54.729-36.312 68.105-91.354 127.084-159.02 165.959l.02.021Z"/></g><defs><clipPath id="a"><path fill="#fff" d="M0 0h500v500H0z"/></clipPath></defs></svg>
